!!!OTL: ES SULL SECH HALT'G KEENER
!!!ARE: Europa, Mitteleuropa, Deutschland, Thueringen
!!!SCT: E0693
!!!YEM: Copyright 1995, estate of Helmut Schaffrath.
**kern
*ICvox
*Ivox
*M3/4
*k[f#]
*G:
{4d
=1
4g
4g
4a
=2
4b
4b}
{8dd
8cc
=3
4b
4b
4a
=4
4g
4g}
{4d
=5
4g
4g
4a
=6
4b
4b}
{8dd
8cc
=7
4b
4b
4a
=8
4g
4g}
{4dd
=9
4gg
4gg
4ff#
=10
4ee
4ee}
{4dd
=11
4cc
4cc
4b
=12
2a}
{8dd
8cc
=13
4cc
4cc
4a
=14
2g}
{8dd
8cc
=15
4b
4b
4a
=16
2g}
==
!!!AGN: Liebes - Lied, Leid, Klage
!!!ONB: ESAC (Essen Associative Code) Database: ERK2
!!!AMT: simple triple
!!!AIN: vox
!!!EED: Helmut Schaffrath
!!!EEV: 1.0
*-
